X:1
T:G Major Oliver Holden, 1800
T:Nahum Tate and Nicholas Brady, 1698 (Psalm 98) 88. 88. 88. 88. (L. M. D.)
T:Sparta No copyright. Transcribed from Plain Psalmody, 1800.
%%score [ 1 2 3 4 ]
L:1/8
M:4/4
K:G
V:1 treble nm="Voice"
V:2 treble nm="Voice"
V:3 treble-8 nm="Tenor"
V:4 bass nm="Bass"
V:1
 (G3 A) | B2 B2 c2 c2 | G2 A2 G3 G | G2 c2 B2 A2 | d4 c4 | B6 B2 | d2 d2 B3 B | c2 A2 A4 | %8
 A4 G2 G2 | B3 d d2 c2 | B6 c2 | c4 c4 | B2 B2 d2 ^c2 | d6 B2 | c2 G2 G2 BA | G4 c4 | B8 | z4 A4 | %18
 B2 d2 c3 A | FG Ac B3 A | B2 d2 G2 c2 | d4 c4 | B8 |] %23
V:2
 D4 | D2 D2 E2 E2 | D2 D2 D3 D | E2 C2 D2 D2 | D4 D4 | D6 D2 | F2 F2 G3 G | F2 F2 F4 | F4 G2 G2 | %9
w: 1.~Sing|to the Lord a|new- made song; Let|earth in one as-|sem- bly|throng; Her|com- mon pat- ron's|praise re- sound:|Sing to the|
 G3 G F2 F2 | G6 F2 | G4 F4 | G2 D2 D2 G2 | F6 G2 | G2 G2 F2 G2 | G4 F4 | G8 | z4 D4 | D2 G2 F3 D | %19
w: Lord and bless His|name, From|day to|day His praise pro-|claim, Who|us with His sal-|va- tion|crowned;|To|hea- then lands His|
 D2 D2 D3 D | D2 G2 G2 G2 | G4 F4 | G8 |] %23
w: fame re- hearse His|won- ders to the|u- ni-|verse.|
V:3
 (B3 A) | G2 G2 E2 G2 | D2 C2 B,3 D | E2 A2 G2 c2 | B4 A4 | G6 G2 | A2 A2 G3 G | A2 F2 D4 | %8
 d4 B2 B2 | G3 B c2 A2 | G6 F2 | E4 A4 | G2 G2 F2 G2 | d6 d2 | e2 dc Be dc | B4 A4 | G8 | z4 D4 | %18
 G2 B2 A3 D | AB cA G3 F | G2 B2 d2 e2 | B4 A4 | G8 |] %23
V:4
 G,4 | G,2 G,2 C,2 C,2 | B,,2 A,,2 G,,3 B,, | C,2 C,2 B,,2 C,2 | D,4 D,4 | G,6 G,2 | %6
 F,2 D,2 G,3 G,, | D,2 D,2 D,4 | D,4 G,2 G,2 | G,3 G, D,2 D,2 | G,6 D,2 | C,4 D,4 | %12
 B,,2 F,,2 A,,2 A,,2 | D,6 B,,2 | C,2 B,,2 A,,2 B,,2 | D,4 D,4 | G,,8 | z4 D,4 | B,,2 G,,2 D,3 D, | %19
 D,2 D,2 G,3 D, | G,2 G,2 B,,2 C,2 | D,4 D,4 | G,,8 |] %23

